X: 4436
M: C
L: 1/8
K: F
!p!(cd |\
c)z(A2 d)z(A2 | c6) (cd) |\
cz(A2 f)z(c2 | e6) !f!(GA) |\
cz(A2 d)z(A2 | c6) (cd) |\
cz(A2 f)z(c2 | d6) (de) |
f>dB>d f2B>d | c>AF>A c2(FA) |\
!ff!(de) |\
"^>"f4 "^>"e4 | "^>"d6 (3(def) |\
"^>"g4 "^>"f4 | "^>"e6 (3(efg) |\
a4 g4 | f>gf>e d2 (3(def) |\
e>A^G>A B>AG>A | "^D.C."d6 :|
[K:Bb]\
"Trio."F2 |\
d4- d>^cd>B | F4- F>Bc>B |\
d4- d>^cd>B | G4- G>BA>G |\


